X:7602
T:Flower of the Quern, The
R:Air
C:James Scott Skinner, 1884
Z:Paul Hardy's Annex Tunebook 2015 (see www.paulhardy.net). Creative Commons cc by-nc-sa licenced.
M:4/4
L:1/4
Q:1/4=120
K:G
D|"G"G G "D"F E/2D/2|"C"c "D7"c "G"B d|"G"d B/2A/2 "Em"G A/2B/2|"Am"A3 "D"D|
"G"G G "D"F E/2D/2|"C"c "D7"c "G"B d|"Am"d/2c/2 E/2A/2 "D"G F|"G"G3 G||
|:"C"c c/2>c/2 c e/2>e/2|"G"d d/2>B/2 d g/2>d/2|d B/2>A/2 "Em"G A/2B/2|"Am"A3 "D"D|
"G"G G "D"F E/2D/2|"C"c "D7"c "G"B d|"Am"d/2c/2 E/2A/2 "D"G/2F/2 B/2>A/2|"G"G3:|]

